!!!COM: Jules Massenet
!!!CNT: Francais
!!!TXO: Francais
!!!OTL: Le Verger
!!!LYR: Camille Distel
!!!ENC: Jacob Pegg
!!!YOR: Romantic French Song 1830-1870 - David Tunley, ed.,
!!!YOR: New York: Garland Publishing, Inc., 1995, Vol. 6
!!!ODT: 1868/
!!NB: Vocal melody and text only encoded.
!!NB: First instance of melodic material only encoded.
**kern	**silbe
*clef G2	*
*k[f#]	*
*M2/4	*
!!created: 12/21/03 13:53
!!proofed and posted: 1/22/04 0:33
!!edit time: 38 min.
=9	=9
{4b	{Oh!
8a	com-
8g	-bien
=10	=10
8a	j’ai-
8a	-me
8dd	le
8a	ver-
=11	=11
*M3/4	*
8b}	-ger}
{8g	{Quand
4e	il
4f#	fleu-
=12	=12
2b}	-rit!}
4r	.
=13	=13
*M2/4	*
{4b	{Les
8a	fleurs
8g	par-
=14	=14
8a	-tout
8dd	sem-
8a	-blent
8b	nei-
=15	=15
*M3/4	*
8cc}	-ger}
{8g	{Et
4a	l’oi-
4b	-sesau
=16	=16
2ee}	rit,}
4r	.
=17	=17
*M2/4	*
{4ee	{La
8dd	terre
8a	est
=18	=18
8cc	rose
8b	et
(bq	|
8a)	blan-
8g	-che,
=19	=19
4ee	L’air
8dd	ca-
8a	-res-
=20	=20
8cc	-se
8b	la
(bq	|
8a)	bran-
8g}	-che,}
=21	=21
{2b	{Oh!
=22	=22
4cc#	le
4f#	ver-
=23	=23
(16dd#	-ger
16cc#	|
4b)	|
8b	fleu-
=24	=24
(2ff#	-ri,
=25	=25
*M3/4	*
8gg)}	|}
{(24ddn	{Qu’il
24ee	|
24ddn)	|
(24ee	est
24ff#	|
24ee)	|
(24a	jo-
24b	|
24a)	|
8ddn	-li!
8g	qu’il
=26	=26
*M2/4	*
4e	est
4f#	jo-
=27	=27
(f#q	|
[2g)	-li!
=28	=28
4g]}	|}
4r	.
!! repeat material until
=63	=63
{4b-	{Et
8a	si
8g	l’hi-
=64	=64
8a	-ver
8a	dans
8dd	le
8a	ver-
=65	=65
*M3/4	*
8b-	-ger
8g	Met
4e-	son
4fn	en-
=66	=66
2b-}	-nui}
4r	.
=67	=67
*M2/4	*
{4b-	{A-
8a	-lors
8g	il
=68	=68
8a	nous
8dd	fau-
8a	-dra
8bn	son-
=69	=69
*M3/4	*
8cc}	-ger}
{8g	{Au
4a	temps
4b	jo-
=70	=70
2een}	-li.}
4r	.
!! repeat of initial material follows.
*-	*-
